X: 30
M:6/8
L:1/8
K:G
ded dBd|dge dBG|cee dBA|BGG G2:|
|:d|gag gfg|afd def|gag gfg|afd d2 e/2f/2|
gbg faf|ege def|gdB AGA|BGG G2:||

